X:1
T:Darling Child
M:2/4
L:1/8
R:Reel
B:Ford - Traditional Music in America
K:D
f/g/|ab/f/ ae/g/|f/g/e/c/ df/g/|ab/f/ ag|b/g/b/g/ ef/g/|
ab/g/ ae/g/|f/e/d/f/ e>f|g/f/e/d/ c/A/B/c/|1 d(dd):|2 (d2d)||
(3A/B/c/|dA/G/ FA|B/A/B/c/ d(A/B/c/|dA/G/ FA|dA/d/ B(3A/B/c/|
dA/G/ FA|B/A/B/c/ dg|f/a/e/d/ c/A/B/c/|ddd||

